X:115
T: ES ZOG EIN MATROSE
N: B0603
O: Europa, Mitteleuropa, Deutschland
R: Staende -, Seemanns - Lied
M: 3/4
L: 1/8
K: C
G,2 | G,2A,3G, | G,2A,3G, | G,2F,2E,2 | F,4
F,2 | B,2B,3A, | B,2B,3A, | A,2G,2F,2 | E,4
C2 | DCB,3A, | B,A,G,2
E,2 | F,3E,F,A, | G,4
G,2 | E2D2C2 | B,A,F2
A,2 | G,EE2D2 | C4

